X: 17261
T: Herd On The Hill, The
R: polka
M: 2/4
K: Amajor
a/f/||eA cB/c/|eA Aa/f/|ec cB/c/|fB Bc/d/|e/f/e/d/ cB/A/|ce ac|df Be/d/|cA A:|
|:a2 ef/g/|ae/d/ cB/A/|a2 e/f/e/c/|dB Be|a2 ef/g/|a/e/f/d/ cB/A/|df Be/d/|cA A:|

